img/icon-sister.svg

<svg width="110" height="110" viewBox="0 0 110 110" fill="none" xmlns="http://www.w3.org/2000/svg">
<g filter="url(#filter0_d_587_2084)">
<path fill-rule="evenodd" clip-rule="evenodd" d="M51.5025 15.2274C47.1138 16.0544 43.1095 18.2075 40.0732 21.3726C37.6473 23.9015 36.2035 26.4469 35.3173 29.7574C34.88 31.391 34.836 31.8503 34.8298 34.8727C34.8235 37.8695 34.8717 38.4117 35.3242 40.4367C36.2277 44.4773 36.1631 47.2591 35.0625 51.7442C34.0558 55.8462 34.1526 59.7966 35.3372 62.9471L35.7531 64.0538L35.332 64.854C34.5341 66.3702 34.165 67.875 34.1671 69.6029C34.1682 70.4914 34.253 71.5004 34.3557 71.8452C34.4583 72.1902 34.5424 72.5616 34.5424 72.6705C34.5424 72.7981 33.7485 72.9112 32.3145 72.9878C29.802 73.1224 28.6945 73.2998 27.0123 73.837C21.7005 75.5333 17.4514 79.7932 15.7491 85.1283C15.1517 87.0007 15 88.2447 15 91.2719C15 94.0554 15.0099 94.1288 15.4402 94.5594L15.8801 95H54.9812H94.0822L94.541 94.5405L95 94.0812L94.9191 90.6367C94.8469 87.5604 94.7872 87.0239 94.3612 85.6151C93.3068 82.1284 91.3302 79.1108 88.7174 76.9997C85.6301 74.505 82.8454 73.4215 78.591 73.0598C76.2295 72.859 76.1194 72.8322 76.2173 72.4826C76.5518 71.2854 76.6752 69.4708 76.4975 68.3582C76.2969 67.1002 75.6129 65.0932 75.1683 64.4578C74.9338 64.1227 74.945 63.9836 75.2728 63.1632C76.2083 60.8222 76.3666 59.9993 76.3815 57.398C76.3924 55.506 76.3096 54.5083 76.0462 53.3596C75.536 51.1334 75.5996 46.3173 76.2108 40.8955C76.7442 36.1633 76.7713 35.0744 76.4147 32.7189C75.7931 28.6124 73.8751 24.7817 70.8514 21.6071C67.8662 18.4733 64.7468 16.6458 60.3598 15.4612C58.539 14.9696 53.567 14.8382 51.5025 15.2274ZM58.0291 18.4428C64.4553 19.4246 69.7712 23.6545 72.1673 29.6933C73.3424 32.6546 73.522 35.2966 72.8979 40.4367C72.7002 42.0655 72.4922 45.1751 72.4359 47.3469C72.3456 50.8306 72.378 51.5655 72.7113 53.5879C73.3675 57.5678 73.1484 59.8743 71.8389 62.7795C69.5657 67.8219 65.013 71.5848 59.5184 72.9622C57.2667 73.5266 53.4092 73.5256 51.1523 72.96C47.7514 72.1078 45.1607 70.6427 42.6888 68.1742C39.8167 65.3059 38.204 62.2455 37.7665 58.8339C37.5332 57.0135 37.6708 55.4635 38.3162 52.6416C39.0999 49.2142 39.2458 48.0919 39.2497 45.4623C39.2533 42.9875 39.1619 42.2371 38.4731 39.0906C37.9788 36.8328 37.9313 33.283 38.3691 31.3291C39.0773 28.1693 40.3733 25.7872 42.6005 23.5515C46.6873 19.449 52.3471 17.575 58.0291 18.4428ZM54.07 26.4597C51.7142 26.7016 49.2574 27.9966 47.1692 30.0971C45.0558 32.2231 43.4921 34.8931 42.3382 38.3455C41.3472 41.3102 41.0934 43.0911 41.0934 47.0776C41.0934 51.0642 41.3472 52.845 42.3382 55.8097C43.5191 59.3431 45.0802 61.9795 47.2639 64.1287C48.7072 65.5491 49.9401 66.3724 51.7936 67.1533C52.8258 67.588 53.1207 67.6272 55.3397 67.6229C57.5455 67.6184 57.8691 67.5748 58.9902 67.1304C65.3549 64.6066 69.6776 56.5086 69.6817 47.1006C69.686 37.4766 65.1335 29.1453 58.6777 26.9626C57.0557 26.4143 55.8236 26.2797 54.07 26.4597ZM56.8101 29.8695C59.0247 30.3403 61.328 32.086 62.8928 34.48C63.7267 35.7556 64.4924 37.2367 64.743 38.0585L64.8662 38.4624H55.3397H45.8133L45.9386 38.0585C46.0075 37.8363 46.3451 37.0893 46.6888 36.3983C49.1222 31.5061 52.9359 29.0461 56.8101 29.8695ZM65.9841 42.4293C66.3362 44.1913 66.4638 47.1902 66.2747 49.249C65.3876 58.9014 59.6577 65.7537 53.7423 64.2367C49.3008 63.0975 45.8696 58.2705 44.6707 51.475C44.3252 49.5174 44.282 45.4107 44.585 43.3533L44.803 41.8726H55.338H65.8729L65.9841 42.4293ZM40.0024 70.2029C41.9724 72.248 43.3947 73.2912 45.9271 74.5479C50.6107 76.8722 55.6318 77.3834 60.8254 76.0644C62.846 75.5514 65.7442 74.2105 67.5819 72.9388C69.0061 71.9531 71.3679 69.6939 72.2417 68.4812C72.544 68.0617 72.8526 67.7183 72.9275 67.7183C73.0023 67.7183 73.1197 68.169 73.1884 68.7197C73.5629 71.7205 72.2193 74.1224 68.6703 76.7965C64.9566 79.5945 61.2195 80.8171 57.1021 80.5813C54.5536 80.4354 53.9234 80.7319 53.9112 82.082C53.8981 83.5302 54.8001 83.94 58.0291 83.9527C60.5378 83.9628 62.0648 83.7137 64.3041 82.9289C67.4076 81.8416 70.069 80.1949 72.563 77.8188L74.1702 76.2878L77.1707 76.3853C80.3791 76.4894 81.4598 76.6971 83.4164 77.5852C85.8232 78.6777 88.4322 81.0011 89.7492 83.2249C90.9547 85.2605 91.7352 88.2352 91.7352 90.795V91.7693H54.9812H18.2272L18.2335 90.5578C18.2462 88.0942 19.0171 85.2454 20.2214 83.2113C21.0139 81.8729 23.0658 79.7016 24.388 78.8024C26.6132 77.2892 28.7774 76.5675 31.6132 76.3932L33.4351 76.2814L34.0106 77.4292C35.0668 79.5363 36.5124 81.5559 38.2411 83.3392C41.4071 86.6055 44.8613 88.5168 49.4233 89.5266C50.9194 89.8578 56.4054 90.0974 57.7766 89.8917C58.9852 89.7102 59.7275 88.9516 59.5808 88.0473C59.5225 87.6876 59.3086 87.2271 59.1055 87.0237C58.7595 86.6775 58.5174 86.6529 55.2899 86.636C51.6072 86.6168 50.0595 86.4041 47.6644 85.5885C43.6513 84.2221 40.1605 81.3825 37.8859 77.6338C37.5261 77.041 37.2317 76.516 37.2317 76.4671C37.2317 76.4183 37.4737 76.33 37.7694 76.2708C38.3382 76.157 39.0226 75.2727 39.0238 74.6504C39.0242 74.465 38.7843 73.8928 38.4906 73.3791C37.7584 72.0978 37.3464 70.3945 37.4614 69.1244C37.5876 67.7316 37.7366 67.5401 38.1919 68.1848C38.3942 68.4713 39.2089 69.3793 40.0024 70.2029ZM75.6633 79.5629C74.8432 79.894 74.4481 81.0856 74.8862 81.9053C75.2065 82.5043 75.8185 82.6953 77.7584 82.802C79.3758 82.8909 79.8229 82.9876 80.8554 83.4714C82.3555 84.174 83.7447 85.53 84.5751 87.1023C85.4734 88.8028 86.488 89.1413 87.5373 88.0907C88.5186 87.1084 87.6791 85.0199 85.3705 82.6996C83.6948 81.0155 82.0547 80.1118 79.8649 79.6661C78.3763 79.3631 76.2849 79.3118 75.6633 79.5629Z" fill="#06FF79"/>
</g>
<defs>
<filter id="filter0_d_587_2084" x="0" y="0" width="110" height="110" filterUnits="userSpaceOnUse" color-interpolation-filters="sRGB">
<feFlood flood-opacity="0" result="BackgroundImageFix"/>
<feColorMatrix in="SourceAlpha" type="matrix" values="0 0 0 0 0 0 0 0 0 0 0 0 0 0 0 0 0 0 127 0" result="hardAlpha"/>
<feOffset/>
<feGaussianBlur stdDeviation="7.5"/>
<feComposite in2="hardAlpha" operator="out"/>
<feColorMatrix type="matrix" values="0 0 0 0 0.0463889 0 0 0 0 0.695833 0 0 0 0 0.346333 0 0 0 0.8 0"/>
<feBlend mode="normal" in2="BackgroundImageFix" result="effect1_dropShadow_587_2084"/>
<feBlend mode="normal" in="SourceGraphic" in2="effect1_dropShadow_587_2084" result="shape"/>
</filter>
</defs>
</svg>

<svg width="110" height="110" fill="none" xmlns="http://www.w3.org/2000/svg"><g filter="url(#filter0_d_587_2084)"><path fill-rule="evenodd" clip-rule="evenodd" d="M51.502 15.227c-4.388.827-8.393 2.98-11.429 6.146-2.426 2.528-3.87 5.074-4.756 8.384-.437 1.634-.481 2.093-.487 5.116-.006 2.997.042 3.539.494 5.564.904 4.04.84 6.822-.261 11.307-1.007 4.102-.91 8.053.274 11.203l.416 1.107-.421.8c-.798 1.516-1.167 3.021-1.165 4.749.001.888.086 1.897.189 2.242.102.345.186.717.186.826 0 .127-.794.24-2.227.317-2.513.134-3.62.312-5.303.849-5.311 1.696-9.56 5.956-11.263 11.291-.597 1.873-.749 3.117-.749 6.144 0 2.783.01 2.857.44 3.287l.44.441h78.202l.459-.46.459-.459-.08-3.444c-.073-3.077-.133-3.613-.559-5.022-1.054-3.487-3.03-6.504-5.644-8.615-3.087-2.495-5.872-3.579-10.126-3.94-2.361-.201-2.472-.228-2.374-.577.335-1.198.458-3.012.28-4.125-.2-1.258-.884-3.265-1.329-3.9-.234-.335-.223-.474.105-1.295.935-2.34 1.094-3.164 1.109-5.765.01-1.892-.072-2.89-.336-4.038-.51-2.227-.446-7.043.165-12.465.533-4.732.56-5.82.204-8.176-.622-4.107-2.54-7.937-5.564-11.112-2.985-3.134-6.104-4.961-10.491-6.146-1.821-.491-6.793-.623-8.858-.234zm6.527 3.216c6.426.982 11.742 5.211 14.138 11.25 1.175 2.962 1.355 5.604.73 10.744-.197 1.629-.405 4.738-.461 6.91-.09 3.484-.058 4.218.275 6.24.657 3.98.437 6.287-.872 9.192-2.273 5.043-6.826 8.806-12.32 10.183-2.252.565-6.11.564-8.367-.002-3.4-.852-5.991-2.317-8.463-4.786-2.872-2.868-4.485-5.929-4.922-9.34-.234-1.82-.096-3.37.55-6.192.783-3.428.929-4.55.933-7.18.003-2.475-.088-3.225-.777-6.371-.494-2.258-.542-5.808-.104-7.762.708-3.16 2.004-5.542 4.231-7.777 4.087-4.103 9.747-5.977 15.43-5.11zM54.07 26.46c-2.356.242-4.813 1.537-6.9 3.637-2.114 2.126-3.678 4.796-4.832 8.248-.99 2.965-1.245 4.746-1.245 8.733 0 3.986.254 5.767 1.245 8.732 1.181 3.533 2.742 6.17 4.926 8.319 1.443 1.42 2.676 2.243 4.53 3.024 1.032.435 1.327.474 3.546.47 2.205-.005 2.53-.048 3.65-.493 6.365-2.523 10.688-10.621 10.692-20.03.004-9.623-4.549-17.955-11.004-20.137-1.622-.549-2.854-.683-4.608-.503zm2.74 3.41c2.215.47 4.518 2.216 6.083 4.61.834 1.276 1.6 2.757 1.85 3.579l.123.403H45.813l.126-.404c.069-.222.406-.969.75-1.66 2.433-4.892 6.247-7.352 10.121-6.529zm9.174 12.56c.352 1.761.48 4.76.29 6.819-.886 9.652-6.616 16.505-12.532 14.988-4.441-1.14-7.872-5.966-9.071-12.762-.346-1.958-.389-6.064-.086-8.122l.218-1.48h21.07l.111.556zM40.002 70.202c1.97 2.045 3.393 3.088 5.925 4.345 4.684 2.324 9.705 2.835 14.898 1.516 2.021-.513 4.92-1.853 6.757-3.125 1.424-.986 3.786-3.245 4.66-4.458.302-.42.61-.763.685-.763.075 0 .193.451.261 1.002.375 3-.969 5.402-4.518 8.076-3.713 2.798-7.45 4.021-11.568 3.785-2.548-.146-3.179.15-3.19 1.501-.014 1.448.888 1.858 4.117 1.87 2.509.01 4.036-.238 6.275-1.023 3.104-1.087 5.765-2.734 8.259-5.11l1.607-1.531 3 .097c3.21.104 4.29.312 6.246 1.2 2.407 1.093 5.016 3.416 6.333 5.64 1.206 2.035 1.986 5.01 1.986 7.57v.974H18.227l.006-1.211c.013-2.464.784-5.313 1.988-7.347.793-1.338 2.845-3.51 4.167-4.409 2.225-1.513 4.39-2.235 7.225-2.409l1.822-.112.576 1.148c1.056 2.107 2.501 4.127 4.23 5.91 3.166 3.267 6.62 5.178 11.182 6.188 1.496.33 6.982.57 8.354.365 1.208-.182 1.95-.94 1.804-1.845-.059-.36-.272-.82-.476-1.023-.345-.347-.588-.371-3.815-.388-3.683-.02-5.23-.232-7.626-1.047-4.013-1.367-7.504-4.207-9.778-7.955-.36-.593-.654-1.118-.654-1.167 0-.049.242-.137.537-.196.57-.114 1.254-.998 1.255-1.62 0-.186-.24-.758-.533-1.272-.733-1.281-1.145-2.985-1.03-4.255.127-1.392.276-1.584.73-.94.203.287 1.018 1.195 1.811 2.019zm35.661 9.36c-.82.331-1.215 1.523-.777 2.342.32.6.933.79 2.872.897 1.618.089 2.065.186 3.097.67 1.5.702 2.89 2.058 3.72 3.63.898 1.7 1.913 2.04 2.962.989.982-.983.142-3.071-2.166-5.391-1.676-1.684-3.316-2.588-5.506-3.034-1.489-.303-3.58-.354-4.202-.103z" fill="#06FF79"/></g><defs><filter id="filter0_d_587_2084" x="0" y="0" width="110" height="110" filterUnits="userSpaceOnUse" color-interpolation-filters="sRGB"><feFlood flood-opacity="0" result="BackgroundImageFix"/><feColorMatrix in="SourceAlpha" values="0 0 0 0 0 0 0 0 0 0 0 0 0 0 0 0 0 0 127 0" result="hardAlpha"/><feOffset/><feGaussianBlur stdDeviation="7.5"/><feComposite in2="hardAlpha" operator="out"/><feColorMatrix values="0 0 0 0 0.0463889 0 0 0 0 0.695833 0 0 0 0 0.346333 0 0 0 0.8 0"/><feBlend in2="BackgroundImageFix" result="effect1_dropShadow_587_2084"/><feBlend in="SourceGraphic" in2="effect1_dropShadow_587_2084" result="shape"/></filter></defs></svg>
